X: 40136
T: Tienside Cottage
R: march
M: 
K: Dmajor
M:6/8
A|d3 a2A|d>fa f>ed|e3 g2f|e>fd c>BA|
d3 a2A|d>fa f>ed|e>fg f2a|e>fA d2:|
|:g|a3 A2d|f2a f>ed|e>fg f2d|B>ed c>BA|
a3 A2d|f2a f>ed|e>fg f2a|e>fA d2:|
|:A|d2A e2A|f>ed g3|a2f g2f|e>fd c>BA|
d2A e2A|f>ed g3|e>fg f2a|e>fA d2:|
|:g|a2a d>ef|g>fg e>fg|a3 f2d|e>fd c>BA|
[1 a2a d>ef|g>fg e>fg|a>gf g2f|e>fAd2:|
[2 d2A e2A|f>ed g2f|e>fg f2a|e>fA d2||

